COLOR/categories 16/16/preferences-power.svg

<svg height="16" viewBox="0 0 16 16" width="16" xmlns="http://www.w3.org/2000/svg" xmlns:xlink="http://www.w3.org/1999/xlink"><linearGradient id="a"><stop offset="0" stop-color="#111"/><stop offset="1" stop-color="#4d4d4d"/></linearGradient><linearGradient id="b" gradientUnits="userSpaceOnUse" x1="7.9999868" x2="7.9999868" xlink:href="#a" y1="1.3332658" y2="11.9999362"/><path d="m4.4450462.4999475c-3.3370543 0-3.96222458.30211676-3.94469124 3.2494614v4.2505248 4.2506053c-.01756674 2.947344.60763694 3.249461 3.94469124 3.249461h7.1102688c3.336221 0 3.944685-.302083 3.944685-3.249461v-4.2506053-4.2505248c0-2.94737764-.608464-3.2494611-3.944688-3.2494611z" fill="#ffc200"/><path d="m7.3333239 12.999936 2.8333341-5.6666655-1.5000003-.0000033v-3.666668l-2.8333343 5.6666753 1.5000005-.0000066z" fill="#fff" opacity=".2" stroke-width=".333268"/><path d="m7.3333239 12.666602 2.8333341-5.6666649-1.5000003-.0000034v-3.6666682l-2.8333343 5.6666756 1.5000005-.0000067z" fill="url(#b)" stroke-width=".333268"/><path d="m4.4453125.5c-3.3370543 0-3.96284584.30265536-3.9453125 3.25v.5c-.01753334-2.9473446.6082582-3.25 3.9453125-3.25h7.1093755c3.336223 0 3.945312.3026224 3.945312 3.25v-.5c0-2.94737764-.609089-3.25-3.945312-3.25z" fill="#fff" opacity=".3"/><path d="m11.554334 15.5c3.337054 0 3.962846-.302655 3.945313-3.25v-.5c.017533 2.947345-.608259 3.25-3.945313 3.25h-7.1093754c-3.336223 0-3.94531196-.302622-3.94531196-3.25v.5c0 2.947378.60908896 3.25 3.94531196 3.25z" opacity=".2"/></svg>

<?xml version="1.0" encoding="UTF-8" standalone="no"?>
<svg
   xmlns:dc="http://purl.org/dc/elements/1.1/"
   xmlns:cc="http://creativecommons.org/ns#"
   xmlns:rdf="http://www.w3.org/1999/02/22-rdf-syntax-ns#"
   xmlns:svg="http://www.w3.org/2000/svg"
   xmlns="http://www.w3.org/2000/svg"
   xmlns:xlink="http://www.w3.org/1999/xlink"
   xmlns:sodipodi="http://sodipodi.sourceforge.net/DTD/sodipodi-0.dtd"
   xmlns:inkscape="http://www.inkscape.org/namespaces/inkscape"
   width="16"
   height="16"
   version="1.1"
   viewBox="0 0 16 16"
   id="svg65"
   sodipodi:docname="unity-power-panel.svg"
   inkscape:version="0.92.4 (5da689c313, 2019-01-14)">
  <metadata
     id="metadata69">
    <rdf:RDF>
      <cc:Work
         rdf:about="">
        <dc:format>image/svg+xml</dc:format>
        <dc:type
           rdf:resource="http://purl.org/dc/dcmitype/StillImage" />
        <dc:title></dc:title>
      </cc:Work>
    </rdf:RDF>
  </metadata>
  <sodipodi:namedview
     pagecolor="#ffffff"
     bordercolor="#666666"
     borderopacity="1"
     objecttolerance="10"
     gridtolerance="10"
     guidetolerance="10"
     inkscape:pageopacity="0"
     inkscape:pageshadow="2"
     inkscape:window-width="1920"
     inkscape:window-height="1016"
     id="namedview67"
     showgrid="false"
     inkscape:zoom="17.851059"
     inkscape:cx="13.2768"
     inkscape:cy="11.002474"
     inkscape:window-x="0"
     inkscape:window-y="27"
     inkscape:window-maximized="1"
     inkscape:current-layer="svg65"
     showguides="false" />
  <defs
     id="defs18">
    <clipPath
       id="clipPath1082-3-361"
       clipPathUnits="userSpaceOnUse">
      <path
         style="fill:#8c59d9"
         d="M 361.9375,-212 C 507.2348,-212 528,-191.28677 528,-46.125 V 70.125 C 528,215.28618 507.2348,236 361.9375,236 H 214.0625 C 68.7652,236 48,215.28618 48,70.125 V -46.125 C 48,-191.28677 68.7652,-212 214.0625,-212 Z"
         id="path2"
         inkscape:connector-curvature="0" />
    </clipPath>
    <clipPath
       id="clipPath1082-3"
       clipPathUnits="userSpaceOnUse">
      <path
         style="fill:#8c59d9"
         d="M 361.9375,-212 C 507.2348,-212 528,-191.28677 528,-46.125 V 70.125 C 528,215.28618 507.2348,236 361.9375,236 H 214.0625 C 68.7652,236 48,215.28618 48,70.125 V -46.125 C 48,-191.28677 68.7652,-212 214.0625,-212 Z"
         id="path5"
         inkscape:connector-curvature="0" />
    </clipPath>
    <clipPath
       id="clipPath951"
       clipPathUnits="userSpaceOnUse">
      <path
         style="fill:#8c59d9"
         d="M 188.96875,44 C 261.6174,44 272,54.356615 272,126.9375 v 58.125 C 272,257.64309 261.6174,268 188.96875,268 h -73.9375 C 42.3826,268 32,257.64309 32,185.0625 v -58.125 C 32,54.356615 42.3826,44 115.03125,44 Z"
         id="path8"
         inkscape:connector-curvature="0" />
    </clipPath>
    <clipPath
       id="clipPath951-3"
       clipPathUnits="userSpaceOnUse">
      <path
         style="fill:#8c59d9"
         d="M 188.96875,44 C 261.6174,44 272,54.356615 272,126.9375 v 58.125 C 272,257.64309 261.6174,268 188.96875,268 h -73.9375 C 42.3826,268 32,257.64309 32,185.0625 v -58.125 C 32,54.356615 42.3826,44 115.03125,44 Z"
         id="path11"
         inkscape:connector-curvature="0" />
    </clipPath>
    <filter
       id="filter11191"
       width="1.024"
       height="1.024"
       x="-0.0099999998"
       y="-0.0099999998"
       style="color-interpolation-filters:sRGB">
      <feGaussianBlur
         id="feGaussianBlur11193"
         stdDeviation="1.12" />
    </filter>
    <filter
       id="filter11210"
       width="1.096"
       height="1.096"
       x="-0.050000001"
       y="-0.050000001"
       style="color-interpolation-filters:sRGB">
      <feGaussianBlur
         id="feGaussianBlur11212"
         stdDeviation="4.48" />
    </filter>
    <clipPath
       clipPathUnits="userSpaceOnUse"
       id="clipPath951-3-3">
      <path
         style="opacity:1;fill:#8c59d9;fill-opacity:1;stroke:none;stroke-width:2;stroke-linecap:round;stroke-linejoin:round;stroke-miterlimit:4;stroke-dasharray:none;stroke-dashoffset:0;stroke-opacity:1"
         d="M 188.96875,44 C 261.6174,44 272,54.356615 272,126.9375 v 58.125 C 272,257.64309 261.6174,268 188.96875,268 h -73.9375 C 42.3826,268 32,257.64309 32,185.0625 v -58.125 C 32,54.356615 42.3826,44 115.03125,44 Z"
         id="path953-1"
         inkscape:connector-curvature="0"
         sodipodi:nodetypes="sssssssss" />
    </clipPath>
    <clipPath
       clipPathUnits="userSpaceOnUse"
       id="clipPath994">
      <path
         style="color:#000000;display:inline;overflow:visible;visibility:visible;fill:#cdcdcd;fill-opacity:1;fill-rule:nonzero;stroke:none;stroke-width:2;stroke-miterlimit:4;stroke-dasharray:none;stroke-opacity:1;marker:none;enable-background:accumulate"
         d="m 335.73108,62 c -8.82418,0 -9.77365,0.90635 -9.7304,9.74838 V 84 96.25162 c -0.0433,8.84203 0.90622,9.74838 9.7304,9.74838 h 16.53919 c 8.82418,0 9.7304,-0.90625 9.7304,-9.74838 V 84 71.74838 C 362.00067,62.90625 361.09445,62 352.27027,62 Z"
         id="path996"
         inkscape:connector-curvature="0"
         sodipodi:nodetypes="scccssscsss" />
    </clipPath>
    <clipPath
       clipPathUnits="userSpaceOnUse"
       id="clipPath994-6">
      <path
         style="color:#000000;display:inline;overflow:visible;visibility:visible;fill:#cdcdcd;fill-opacity:1;fill-rule:nonzero;stroke:none;stroke-width:2;stroke-miterlimit:4;stroke-dasharray:none;stroke-opacity:1;marker:none;enable-background:accumulate"
         d="m 335.73108,62 c -8.82418,0 -9.77365,0.90635 -9.7304,9.74838 V 84 96.25162 c -0.0433,8.84203 0.90622,9.74838 9.7304,9.74838 h 16.53919 c 8.82418,0 9.7304,-0.90625 9.7304,-9.74838 V 84 71.74838 C 362.00067,62.90625 361.09445,62 352.27027,62 Z"
         id="path996-7"
         inkscape:connector-curvature="0"
         sodipodi:nodetypes="scccssscsss" />
    </clipPath>
    <clipPath
       clipPathUnits="userSpaceOnUse"
       id="clipPath994-5">
      <path
         style="color:#000000;display:inline;overflow:visible;visibility:visible;fill:#cdcdcd;fill-opacity:1;fill-rule:nonzero;stroke:none;stroke-width:2;stroke-miterlimit:4;stroke-dasharray:none;stroke-opacity:1;marker:none;enable-background:accumulate"
         d="m 335.73108,62 c -8.82418,0 -9.77365,0.90635 -9.7304,9.74838 V 84 96.25162 c -0.0433,8.84203 0.90622,9.74838 9.7304,9.74838 h 16.53919 c 8.82418,0 9.7304,-0.90625 9.7304,-9.74838 V 84 71.74838 C 362.00067,62.90625 361.09445,62 352.27027,62 Z"
         id="path996-3"
         inkscape:connector-curvature="0"
         sodipodi:nodetypes="scccssscsss" />
    </clipPath>
    <clipPath
       clipPathUnits="userSpaceOnUse"
       id="clipPath983-7">
      <path
         id="path985-3"
         d="M 115.03125,44 C 42.3826,44 32,54.356615 32,126.9375 v 58.125 C 32,257.64309 42.3826,268 115.03125,268 H 152 V 44 Z"
         style="opacity:1;fill:#4d4d4d;fill-opacity:1;stroke:none;stroke-width:2;stroke-linecap:round;stroke-linejoin:round;stroke-miterlimit:4;stroke-dasharray:none;stroke-dashoffset:0;stroke-opacity:1"
         inkscape:connector-curvature="0" />
    </clipPath>
    <clipPath
       clipPathUnits="userSpaceOnUse"
       id="clipPath994-3">
      <path
         style="color:#000000;display:inline;overflow:visible;visibility:visible;fill:#cdcdcd;fill-opacity:1;fill-rule:nonzero;stroke:none;stroke-width:2;stroke-miterlimit:4;stroke-dasharray:none;stroke-opacity:1;marker:none;enable-background:accumulate"
         d="m 335.73108,62 c -8.82418,0 -9.77365,0.90635 -9.7304,9.74838 V 84 96.25162 c -0.0433,8.84203 0.90622,9.74838 9.7304,9.74838 h 16.53919 c 8.82418,0 9.7304,-0.90625 9.7304,-9.74838 V 84 71.74838 C 362.00067,62.90625 361.09445,62 352.27027,62 Z"
         id="path996-7-5"
         inkscape:connector-curvature="0"
         sodipodi:nodetypes="scccssscsss" />
    </clipPath>
    <linearGradient
       inkscape:collect="always"
       xlink:href="#linearGradient1674"
       id="linearGradient16503"
       x1="320.79483"
       y1="99.180145"
       x2="367.20901"
       y2="70.817093"
       gradientUnits="userSpaceOnUse"
       gradientTransform="matrix(-1,0,0,1,368.002,-60.50046)" />
    <linearGradient
       inkscape:collect="always"
       id="linearGradient1674">
      <stop
         id="stop1670"
         offset="0"
         style="stop-color:#fb7c38;stop-opacity:1" />
      <stop
         id="stop1672"
         offset="1"
         style="stop-color:#9b33ae;stop-opacity:1" />
    </linearGradient>
    <clipPath
       clipPathUnits="userSpaceOnUse"
       id="clipPath994-62">
      <path
         style="color:#000000;display:inline;overflow:visible;visibility:visible;fill:#cdcdcd;fill-opacity:1;fill-rule:nonzero;stroke:none;stroke-width:2;stroke-miterlimit:4;stroke-dasharray:none;stroke-opacity:1;marker:none;enable-background:accumulate"
         d="m 335.73108,62 c -8.82418,0 -9.77365,0.90635 -9.7304,9.74838 V 84 96.25162 c -0.0433,8.84203 0.90622,9.74838 9.7304,9.74838 h 16.53919 c 8.82418,0 9.7304,-0.90625 9.7304,-9.74838 V 84 71.74838 C 362.00067,62.90625 361.09445,62 352.27027,62 Z"
         id="path996-9"
         inkscape:connector-curvature="0"
         sodipodi:nodetypes="scccssscsss" />
    </clipPath>
    <linearGradient
       inkscape:collect="always"
       xlink:href="#linearGradient898"
       id="linearGradient947"
       gradientUnits="userSpaceOnUse"
       gradientTransform="matrix(0,0,0,0,5.8333234,12.666602)"
       x1="344"
       y1="64"
       x2="344"
       y2="96" />
    <linearGradient
       inkscape:collect="always"
       id="linearGradient898">
      <stop
         id="stop896"
         offset="0"
         style="stop-color:#111111;stop-opacity:1" />
      <stop
         id="stop894"
         offset="1"
         style="stop-color:#4d4d4d;stop-opacity:1;" />
    </linearGradient>
    <linearGradient
       inkscape:collect="always"
       xlink:href="#linearGradient898"
       id="linearGradient939"
       gradientUnits="userSpaceOnUse"
       x1="344"
       y1="64"
       x2="344"
       y2="96"
       gradientTransform="matrix(0.33333345,0,0,0.33333345,-106.66672,-20.000075)" />
  </defs>
  <clipPath
     id="b">
    <use
       id="use5"
       width="100%"
       height="100%"
       x="0"
       y="0"
       overflow="visible"
       xlink:href="#a"
       style="overflow:visible" />
  </clipPath>
  <path
     style="color:#000000;display:inline;overflow:visible;visibility:visible;fill:#ffc200;fill-opacity:1;fill-rule:nonzero;stroke:none;stroke-width:0.33333346;marker:none;enable-background:accumulate"
     d="m 4.4450462,0.4999475 c -3.3370543,0 -3.96222458,0.30211676 -3.94469124,3.2494614 V 7.9999337 12.250539 C 0.48278822,15.197883 1.1079919,15.5 4.4450462,15.5 H 11.555315 C 14.891536,15.5 15.5,15.197917 15.5,12.250539 V 7.9999337 3.7494089 c 0,-2.94737764 -0.608464,-3.2494611 -3.944688,-3.2494611 z"
     id="path964"
     inkscape:connector-curvature="0"
     sodipodi:nodetypes="scccssscsss" />
  <path
     style="display:inline;opacity:0.2;fill:#ffffff;fill-opacity:1;stroke-width:0.33326754;enable-background:new"
     d="m 7.3333239,12.999936 2.8333341,-5.6666655 -1.5000003,-3.3e-6 v -3.666668 l -2.8333343,5.6666753 1.5000005,-6.6e-6 z"
     inkscape:connector-curvature="0"
     sodipodi:nodetypes="ccccccc"
     id="path941" />
  <path
     id="path937-9"
     sodipodi:nodetypes="ccccccc"
     inkscape:connector-curvature="0"
     d="M 7.3333239,12.666602 10.166658,6.9999371 8.6666577,6.9999337 V 3.3332655 l -2.8333343,5.6666756 1.5000005,-6.7e-6 z"
     style="display:inline;fill:url(#linearGradient939);fill-opacity:1;stroke-width:0.33326754;enable-background:new" />
  <path
     style="display:inline;fill:url(#linearGradient947);fill-opacity:1;stroke-width:0.33326754;enable-background:new"
     d="M 5.8333234,12.666602 Z"
     inkscape:connector-curvature="0"
     sodipodi:nodetypes="ccccccc"
     id="path945" />
  <path
     style="color:#000000;display:inline;overflow:visible;visibility:visible;fill:#ffffff;fill-opacity:1;fill-rule:nonzero;stroke:none;stroke-width:0.33333346;marker:none;enable-background:accumulate;opacity:0.3"
     d="M 4.4453125 0.5 C 1.1082582 0.5 0.48246666 0.80265536 0.5 3.75 L 0.5 4.25 C 0.48246666 1.3026554 1.1082582 1 4.4453125 1 L 11.554688 1 C 14.890911 1 15.5 1.3026224 15.5 4.25 L 15.5 3.75 C 15.5 0.80262236 14.890911 0.5 11.554688 0.5 L 4.4453125 0.5 z "
     id="path868" />
  <path
     id="path873"
     d="m 11.554334,15.5 c 3.337054,0 3.962846,-0.302655 3.945313,-3.25 v -0.5 C 15.51718,14.697345 14.891388,15 11.554334,15 H 4.4449586 C 1.1087356,15 0.49964664,14.697378 0.49964664,11.75 v 0.5 c 0,2.947378 0.60908896,3.25 3.94531196,3.25 z"
     style="color:#000000;display:inline;overflow:visible;visibility:visible;opacity:0.2;fill:#000000;fill-opacity:1;fill-rule:nonzero;stroke:none;stroke-width:0.33333346;marker:none;enable-background:accumulate"
     inkscape:connector-curvature="0" />
</svg>
